src/assets/svg/empty.svg

<svg width="120" height="101" viewBox="0 0 120 101" fill="none" xmlns="http://www.w3.org/2000/svg">
<path fill-rule="evenodd" clip-rule="evenodd" d="M97.5567 3.58213C97.5874 1.57331 99.2408 -0.0302682 101.25 0.000433601C103.258 0.0311355 104.862 1.68449 104.831 3.69331L104.717 11.1759C104.686 13.1847 103.033 14.7883 101.024 14.7576C99.0152 14.7269 97.4116 13.0735 97.4423 11.0647L97.5567 3.58213ZM101.207 2.76161C100.724 2.75422 100.325 3.14047 100.318 3.62433L100.204 11.1069C100.196 11.5907 100.582 11.989 101.066 11.9964C101.55 12.0038 101.948 11.6175 101.956 11.1337L102.07 3.65111C102.077 3.16725 101.691 2.76901 101.207 2.76161ZM105.243 18.6962C105.273 16.6874 106.927 15.0838 108.935 15.1145L116.418 15.2289C118.427 15.2596 120.03 16.913 120 18.9218C119.969 20.9306 118.316 22.5342 116.307 22.5035L108.824 22.3891C106.815 22.3584 105.212 20.7051 105.243 18.6962ZM108.893 17.8757C108.409 17.8683 108.011 18.2546 108.004 18.7384C107.996 19.2223 108.383 19.6205 108.866 19.6279L116.349 19.7423C116.833 19.7497 117.231 19.3634 117.238 18.8796C117.246 18.3957 116.86 17.9975 116.376 17.9901L108.893 17.8757ZM20.982 24.5269C22.0782 20.2518 25.931 17.2622 30.3443 17.2622H92.5431C96.9565 17.2622 100.809 20.2518 101.905 24.5269L108.615 50.6949C108.939 51.9589 109.004 53.2754 108.806 54.5651L104.908 79.9018C104.182 84.6168 100.125 88.0974 95.3549 88.0974H37.2266C34.3413 95.1436 27.4155 100.107 19.3304 100.107C8.65454 100.107 0 91.4527 0 80.7768C0 71.5399 6.47865 63.8161 15.1398 61.9018L14.0626 54.5239C13.8777 53.2574 13.9461 51.9667 14.2641 50.7269L20.982 24.5269ZM17.872 61.5005C18.3534 61.4645 18.8398 61.4463 19.3304 61.4463C30.0064 61.4463 38.6609 70.1008 38.6609 80.7768C38.6609 82.3473 38.4736 83.874 38.1202 85.3359H95.3549C98.7624 85.3359 101.66 82.8498 102.178 79.4819L106.076 54.1452L106.084 54.0918L106.089 54.0598H85.4991L79.6628 62.2307C77.8485 64.7707 74.9193 66.2781 71.7979 66.2781H51.9606C48.8392 66.2781 45.91 64.7707 44.0957 62.2307L38.2594 54.0598H16.7859L16.7951 54.1249L17.872 61.5005ZM99.2305 25.2128L105.919 51.2983H96.8601V50.4264V50.3477V43.0791V41.6209V32.8928C96.8601 29.0799 93.7692 25.989 89.9563 25.989H32.9289C29.1161 25.989 26.0252 29.0799 26.0252 32.8928V41.6209V43.0791V50.3477V50.4264V51.2983H16.9684L23.6569 25.2127C24.4399 22.1591 27.1919 20.0237 30.3443 20.0237H92.5431C95.6955 20.0237 98.4475 22.1591 99.2305 25.2128ZM94.0986 36.0974C92.9447 35.2307 91.5105 34.7171 89.9563 34.7171H32.9289C31.3747 34.7171 29.9405 35.2307 28.7867 36.0974V32.8928C28.7867 30.6051 30.6412 28.7505 32.9289 28.7505H89.9563C92.244 28.7505 94.0986 30.6051 94.0986 32.8928V36.0974ZM28.7867 51.2983H38.9699C39.4158 51.2983 39.8343 51.5136 40.0935 51.8765L46.3428 60.6256C47.6387 62.4399 49.7311 63.5166 51.9606 63.5166H71.7979C74.0274 63.5166 76.1198 62.4399 77.4157 60.6256L83.665 51.8765C83.9242 51.5136 84.3427 51.2983 84.7886 51.2983H94.0986V50.5572L93.8208 49.1041C93.7856 48.9197 93.7432 48.7383 93.694 48.56C93.0267 47.1672 91.6038 46.2054 89.9563 46.2054H32.9289C31.0231 46.2054 29.4178 47.4925 28.9351 49.2449C28.9121 49.381 28.893 49.5186 28.878 49.6575L28.7867 50.5009V51.2983ZM2.76149 80.7768C2.76149 71.626 10.1797 64.2078 19.3304 64.2078C28.4812 64.2078 35.8994 71.626 35.8994 80.7768C35.8994 89.9276 28.4812 97.3458 19.3304 97.3458C10.1797 97.3458 2.76149 89.9276 2.76149 80.7768ZM15.8786 71.8019C15.8786 69.8955 17.424 68.35 19.3304 68.35C21.2369 68.35 22.7823 69.8955 22.7823 71.8019V80.0864C22.7823 81.9928 21.2369 83.5383 19.3304 83.5383C17.424 83.5383 15.8786 81.9928 15.8786 80.0864V71.8019ZM19.3304 71.1115C18.9492 71.1115 18.6401 71.4206 18.6401 71.8019V80.0864C18.6401 80.4677 18.9492 80.7768 19.3304 80.7768C19.7117 80.7768 20.0208 80.4677 20.0208 80.0864V71.8019C20.0208 71.4206 19.7117 71.1115 19.3304 71.1115ZM19.3304 93.2036C17.424 93.2036 15.8786 91.6581 15.8786 89.7517C15.8786 87.8453 17.424 86.2998 19.3304 86.2998C21.2369 86.2998 22.7823 87.8453 22.7823 89.7517C22.7823 91.6581 21.2369 93.2036 19.3304 93.2036ZM18.6401 89.7517C18.6401 90.133 18.9492 90.442 19.3304 90.442C19.7117 90.442 20.0208 90.133 20.0208 89.7517C20.0208 89.3704 19.7117 89.0613 19.3304 89.0613C18.9492 89.0613 18.6401 89.3704 18.6401 89.7517Z" fill="url(#paint0_linear_4892_106195)" fill-opacity="0.5"/>
<defs>
<linearGradient id="paint0_linear_4892_106195" x1="-7.15081e-07" y1="41.7114" x2="115.823" y2="63.1923" gradientUnits="userSpaceOnUse">
<stop stop-color="#BEBEBE" stop-opacity="0.2"/>
<stop offset="0.34375" stop-color="#BEBEBE" stop-opacity="0.8"/>
<stop offset="0.697917" stop-color="#BEBEBE" stop-opacity="0.8"/>
<stop offset="1" stop-color="#BEBEBE" stop-opacity="0.2"/>
</linearGradient>
</defs>
</svg>

<svg width="120" height="101" fill="none" xmlns="http://www.w3.org/2000/svg"><path fill-rule="evenodd" clip-rule="evenodd" d="M97.557 3.582a3.638 3.638 0 0 1 7.274.111l-.114 7.483a3.638 3.638 0 0 1-7.275-.111zm3.65-.82a.876.876 0 0 0-.889.862l-.114 7.483a.875.875 0 1 0 1.752.027l.114-7.483a.877.877 0 0 0-.863-.89m4.036 15.934a3.637 3.637 0 0 1 3.692-3.582l7.483.115a3.638 3.638 0 0 1-.111 7.275l-7.483-.115a3.637 3.637 0 0 1-3.581-3.693m3.65-.82a.875.875 0 1 0-.027 1.752l7.483.114a.875.875 0 1 0 .027-1.752zm-87.911 6.65a9.665 9.665 0 0 1 9.362-7.264h62.2a9.665 9.665 0 0 1 9.361 7.265l6.71 26.168a9.7 9.7 0 0 1 .191 3.87l-3.898 25.337a9.666 9.666 0 0 1-9.553 8.195H37.227c-2.886 7.047-9.811 12.01-17.897 12.01C8.655 100.107 0 91.453 0 80.777c0-9.237 6.479-16.96 15.14-18.875l-1.077-7.378a9.7 9.7 0 0 1 .201-3.797zM17.872 61.5q.722-.055 1.458-.055c10.676 0 19.33 8.655 19.33 19.33 0 1.571-.186 3.098-.54 4.56h57.235a6.9 6.9 0 0 0 6.823-5.854l3.898-25.337.008-.053.005-.032h-20.59l-5.836 8.17a9.66 9.66 0 0 1-7.865 4.048H51.96a9.66 9.66 0 0 1-7.865-4.047l-5.837-8.171H16.786l.01.065zm81.359-36.288 6.688 26.085H96.86V32.893a6.904 6.904 0 0 0-6.904-6.904H32.93a6.904 6.904 0 0 0-6.904 6.904v18.405h-9.057l6.689-26.085a6.904 6.904 0 0 1 6.687-5.19h62.2a6.904 6.904 0 0 1 6.687 5.19M94.1 36.097a6.87 6.87 0 0 0-4.143-1.38H32.93a6.87 6.87 0 0 0-4.142 1.38v-3.204a4.14 4.14 0 0 1 4.142-4.143h57.027a4.14 4.14 0 0 1 4.143 4.143zM28.787 51.298H38.97c.446 0 .864.216 1.124.578l6.249 8.75a6.9 6.9 0 0 0 5.618 2.89h19.837a6.9 6.9 0 0 0 5.618-2.89l6.249-8.75a1.38 1.38 0 0 1 1.124-.578h9.31v-.74l-.278-1.454a7 7 0 0 0-.127-.544 4.14 4.14 0 0 0-3.738-2.355H32.93a4.144 4.144 0 0 0-3.994 3.04 7 7 0 0 0-.057.413l-.091.843zM2.76 80.777c0-9.151 7.419-16.57 16.57-16.57s16.568 7.419 16.568 16.57-7.418 16.569-16.569 16.569S2.76 89.928 2.76 80.776m13.118-8.975a3.452 3.452 0 1 1 6.903 0v8.284a3.452 3.452 0 1 1-6.903 0zm3.451-.69a.69.69 0 0 0-.69.69v8.284a.69.69 0 1 0 1.38 0v-8.284a.69.69 0 0 0-.69-.69m0 22.092a3.452 3.452 0 1 1 0-6.904 3.452 3.452 0 0 1 0 6.904m-.69-3.452a.69.69 0 1 0 1.38 0 .69.69 0 0 0-1.38 0" fill="url(#prefix__a)" fill-opacity=".5"/><defs><linearGradient id="prefix__a" x1="0" y1="41.711" x2="115.823" y2="63.192" gradientUnits="userSpaceOnUse"><stop stop-color="#BEBEBE" stop-opacity=".2"/><stop offset=".344" stop-color="#BEBEBE" stop-opacity=".8"/><stop offset=".698" stop-color="#BEBEBE" stop-opacity=".8"/><stop offset="1" stop-color="#BEBEBE" stop-opacity=".2"/></linearGradient></defs></svg>
